www/assets/icons/deselect.svg

<svg width="24" height="24" viewBox="0 0 24 24" xmlns="http://www.w3.org/2000/svg" fill='currentColor'><path d="M3.70998 12.29H5.70998V10.29H3.70998V12.29ZM7.70998 20.29H9.70998V18.29H7.70998V20.29ZM13.71 2.28998H11.71V4.28998H13.71V2.28998ZM19.71 2.28998V4.28998H21.71C21.71 3.18998 20.81 2.28998 19.71 2.28998ZM5.70998 20.29V18.29H3.70998C3.70998 19.39 4.60998 20.29 5.70998 20.29ZM3.70998 16.29H5.70998V14.29H3.70998V16.29ZM11.71 20.29H13.71V18.29H11.71V20.29ZM19.71 12.29H21.71V10.29H19.71V12.29ZM19.71 8.28998H21.71V6.28998H19.71V8.28998ZM15.71 4.28998H17.71V2.28998H15.71V4.28998ZM8.53998 4.28998L7.70998 3.45998V2.28998H9.70998V4.28998H8.53998ZM20.54 16.29L19.71 15.46V14.29H21.71V16.29H20.54ZM21.9 20.48L3.51998 2.09998L2.09998 3.50998L4.87998 6.28998H3.70998V8.28998H5.70998V7.11998L7.70998 9.11998V16.29H14.88L16.88 18.29H15.71V20.29H17.71V19.12L20.49 21.9L21.9 20.48ZM9.70998 14.29V11.12L12.88 14.29H9.70998ZM15.71 11.46V8.28998H12.54L10.54 6.28998H17.71V13.46L15.71 11.46Z"/></svg>

<svg xmlns="http://www.w3.org/2000/svg" width="24" height="24" viewBox="0 0 24 24" fill='currentColor'><path d="M3.71 12.29h2v-2h-2zm4 8h2v-2h-2zm6-18h-2v2h2zm6 0v2h2c0-1.1-.9-2-2-2m-14 18v-2h-2c0 1.1.9 2 2 2m-2-4h2v-2h-2zm8 4h2v-2h-2zm8-8h2v-2h-2zm0-4h2v-2h-2zm-4-4h2v-2h-2zm-7.17 0-.83-.83V2.29h2v2zm12 12-.83-.83v-1.17h2v2zm1.36 4.19L3.52 2.1 2.1 3.51l2.78 2.78H3.71v2h2V7.12l2 2v7.17h7.17l2 2h-1.17v2h2v-1.17l2.78 2.78zM9.71 14.29v-3.17l3.17 3.17zm6-2.83V8.29h-3.17l-2-2h7.17v7.17z"/></svg>
